assets/img/braze_icons/channel-paid-media.svg

<svg fill="none" height="24" viewBox="0 0 24 24" width="24" xmlns="http://www.w3.org/2000/svg"><g fill="#801ed7"><path d="m15.6 3c1.1366 0 1.9289.00078 2.5458.05118.6051.04944.9528.14162 1.2162.2758.5645.28762 1.0234.74656 1.311 1.31105.1342.26335.2264.61104.2758 1.21621.0504.61684.0512 1.40916.0512 2.54576v7.6c0 .5523.4477 1 1 1s1-.4477 1-1v-7.64283c0-1.08373 0-1.95794-.0578-2.66579-.0596-.72885-.1854-1.36904-.4872-1.96133-.4793-.94081-1.2442-1.70571-2.185-2.18508-.5923-.30179-1.2325-.4276-1.9614-.48715-.7079-.057837-1.582-.057829-2.6658-.05782h-7.6428c-.55228 0-1 .44772-1 1 0 .55229.44772 1 1 1z"/><path clip-rule="evenodd" d="m14.8385 4h-8.67704c-.52715-.00002-.98191-.00003-1.35649.03057-.39534.0323-.78856.10362-1.16694.29641-.56449.28762-1.02343.74656-1.31105 1.31105-.19279.37838-.26411.7716-.29641 1.16694-.0306.37457-.03059.82932-.03057 1.35645v8.67708c-.00002.5272-.00003.982.03057 1.3565.0323.3954.10362.7886.29641 1.167.28762.5645.74657 1.0234 1.31105 1.311.37838.1928.7716.2641 1.16694.2964.37457.0306.82933.0306 1.35647.0306h8.67716c.5271 0 .9819 0 1.3564-.0306.3954-.0323.7886-.1036 1.167-.2964.5645-.2876 1.0234-.7465 1.311-1.311.1928-.3784.2641-.7716.2964-1.167.0306-.3745.0306-.8293.0306-1.3564v-8.67716c0-.52715 0-.9819-.0306-1.35647-.0323-.39534-.1036-.78856-.2964-1.16694-.2876-.56449-.7465-1.02343-1.311-1.31105-.3784-.19279-.7716-.26411-1.167-.29641-.3745-.0306-.8293-.03059-1.3565-.03057zm-9.8385 5c0-.55228.44772-1 1-1h2c.55229 0 1 .44772 1 1v2c0 .5523-.44771 1-1 1h-2c-.55228 0-1-.4477-1-1zm0 5c0-.5523.44772-1 1-1h2c.55229 0 1 .4477 1 1v2c0 .5523-.44771 1-1 1h-2c-.55228 0-1-.4477-1-1zm6-5c-.5523 0-1 .44771-1 1 0 .5523.4477 1 1 1h4c.5523 0 1-.4477 1-1 0-.55229-.4477-1-1-1zm0 5c-.5523 0-1 .4477-1 1s.4477 1 1 1h4c.5523 0 1-.4477 1-1s-.4477-1-1-1z" fill-rule="evenodd"/></g></svg>

<svg width="24" height="24" viewBox="0 0 24 24" fill="none" xmlns="http://www.w3.org/2000/svg">
<path d="M15.6 3C16.7366 3 17.5289 3.00078 18.1458 3.05118C18.7509 3.10062 19.0986 3.1928 19.362 3.32698C19.9265 3.6146 20.3854 4.07354 20.673 4.63803C20.8072 4.90138 20.8994 5.24907 20.9488 5.85424C20.9992 6.47108 21 7.2634 21 8.4V16C21 16.5523 21.4477 17 22 17C22.5523 17 23 16.5523 23 16V8.35717C23 7.27344 23 6.39923 22.9422 5.69138C22.8826 4.96253 22.7568 4.32234 22.455 3.73005C21.9757 2.78924 21.2108 2.02434 20.27 1.54497C19.6777 1.24318 19.0375 1.11737 18.3086 1.05782C17.6007 0.999983 16.7266 0.999991 15.6428 1H8C7.44772 1 7 1.44772 7 2C7 2.55229 7.44772 3 8 3H15.6Z" fill="#801ED7"/>
<path fill-rule="evenodd" clip-rule="evenodd" d="M14.8385 4H6.16146C5.63431 3.99998 5.17955 3.99997 4.80497 4.03057C4.40963 4.06287 4.01641 4.13419 3.63803 4.32698C3.07354 4.6146 2.6146 5.07354 2.32698 5.63803C2.13419 6.01641 2.06287 6.40963 2.03057 6.80497C1.99997 7.17954 1.99998 7.63429 2 8.16142V16.8385C1.99998 17.3657 1.99997 17.8205 2.03057 18.195C2.06287 18.5904 2.13419 18.9836 2.32698 19.362C2.6146 19.9265 3.07355 20.3854 3.63803 20.673C4.01641 20.8658 4.40963 20.9371 4.80497 20.9694C5.17954 21 5.6343 21 6.16144 21H14.8386C15.3657 21 15.8205 21 16.195 20.9694C16.5904 20.9371 16.9836 20.8658 17.362 20.673C17.9265 20.3854 18.3854 19.9265 18.673 19.362C18.8658 18.9836 18.9371 18.5904 18.9694 18.195C19 17.8205 19 17.3657 19 16.8386V8.16144C19 7.63429 19 7.17954 18.9694 6.80497C18.9371 6.40963 18.8658 6.01641 18.673 5.63803C18.3854 5.07354 17.9265 4.6146 17.362 4.32698C16.9836 4.13419 16.5904 4.06287 16.195 4.03057C15.8205 3.99997 15.3657 3.99998 14.8385 4ZM5 9C5 8.44772 5.44772 8 6 8H8C8.55229 8 9 8.44772 9 9V11C9 11.5523 8.55229 12 8 12H6C5.44772 12 5 11.5523 5 11V9ZM5 14C5 13.4477 5.44772 13 6 13H8C8.55229 13 9 13.4477 9 14V16C9 16.5523 8.55229 17 8 17H6C5.44772 17 5 16.5523 5 16V14ZM11 9C10.4477 9 10 9.44771 10 10C10 10.5523 10.4477 11 11 11H15C15.5523 11 16 10.5523 16 10C16 9.44771 15.5523 9 15 9H11ZM11 14C10.4477 14 10 14.4477 10 15C10 15.5523 10.4477 16 11 16H15C15.5523 16 16 15.5523 16 15C16 14.4477 15.5523 14 15 14H11Z" fill="#801ED7"/>
</svg>
